X:87
T:Tekeli. RH.087
R:Jig
S:Rev.R.Harrison’s MS,c1815,Cumbria
O:England
A:Temple Sowerby,Cumbria
Z:vmp.Simon Wilson. Review PJH, 2008.
M:6/8
L:1/8
Q:3/8=120
K:D
A|d2d dcd|B2d A2d|ABc def|g2e c2A|!
d2d dcd|B2d A2d|ABc def|gec d2:|!
|:z|d2e f3|fgf e2d{f}|{f}e2d {f}e2d|{f}e2d {f}e2f|!
d2e f3|fgf e2d|{f}e2d e2f|e3 d2:|

